X: 32242
T: Pibddawns Llewelyn Alaw
R: hornpipe
M: 4/4
K: Gmajor
|:c>A|(3BcB D>G B>^A (3B=AG|c>D (3FGA c2 (3cBA|(3BdB D>G B>DG>B|d>DF>A (3ded (3cBA|
(3BcB D>G B2 (3dcB|c>DF>A (3cdc (3cBA|B>dD>G A>dD>F|G2 B2 G2:|
|:(3ABc|d>DG>B d2 (3dcB|e>EG>c e2 c>B|c>DF>A (3cdc (3cBA|d>DG>B d2 B^A|
(3BdB D>G (3BcB d>B|(3cdc F>A c2 (3cBA|B>D (3DDG A>D (3DDF|G2 =F2 G2:|

